dist/img/svg/row--mail.svg

<svg width="26" height="22" viewBox="0 0 26 22" fill="none" xmlns="http://www.w3.org/2000/svg">
<path d="M1 10.0175H0.95V10.0675V11.9325V11.9825H1H21.3803L13.564 19.7104L13.5272 19.7468L13.5649 19.7823L14.8928 21.0364L14.928 21.0696L14.9624 21.0355L25.0352 11.0355L25.071 11L25.0352 10.9645L14.9624 0.964517L14.9276 0.929984L14.8924 0.964074L13.5968 2.21809L13.5602 2.25357L13.5964 2.2895L21.3807 10.0175H1Z" fill="#2A2A2A" stroke="#2A2A2A" stroke-width="0.1"/>
</svg>

<svg width="26" height="22" viewBox="0 0 26 22" fill="none" xmlns="http://www.w3.org/2000/svg"><path d="M1 10.018H.95v1.964h20.43l-7.816 7.728-.037.037.038.035 1.328 1.254.035.034.034-.035 10.073-10 .036-.035-.036-.036-10.073-10-.034-.034-.036.034-1.295 1.254-.037.036.036.035 7.785 7.728H1z" fill="#2A2A2A" stroke="#2A2A2A" stroke-width=".1"/></svg>
